X: 90
T:Untitled. HA.089
M:C
L:1/8
Q:150
C:in Hand C
S:Henry Atkinson's original MS,Hartburn,N'umberland,1694.
O:England
A:Hartburn,Northumberland
H:1/8
Z:vmp.Chris Partington.Jan.2004
K:Bb
B>A|F2e>dc2(B>c)|d2d4g>f|=e2a>bg2^f>g|^f6d>e|!
B2g2d3d|e6c>G|A2f>c c3B|B6:|!
|:g>a|b2a2g3a|b2d4=ee|f2g2g3f/g/|a2f4c>d|!
e2d2c3B|c2A4Bc|d>f=e>gf3b|a2g4:|]
